X: 141
T: Mrs Blair of Blair's Reel
C: attr. John French (1753-1803)
R: reel
B: "John French Collection", John French ed. p.14 #1
S: http://www.heallan.com/french.asp
Z: 2012 John Chambers <jc:trillian.mit.edu>
M: C
L: 1/8
K: D
A |\
d2(fd) adfd | Be-ed cABc | d2(fd) adfd | Be-ec d2D :|
G |\
FAdF GBeg | fdAF GFEG | FAdF GBeg | fdec d2DG |
FAdF GBeg | fdAF GFEG | FAdA Bdgb | afge d2D |]

%%sep 2 1 500
%%sep 1 1 500

